X:1
T:Title
%%score { 1 | 2 }
L:1/8
M:4/4
K:Bb
V:1 treble nm="Grand Piano"
V:2 bass 
V:1
 z4 z2[Q:1/4=100] DE | [DF][_D=E][=DF][_EG] [DF][Fd][Ec][DB] | [DF]2 [DF]4 D[CE] | %3
 [DF][_D=E][=DF][_EG] [DF][DB][DF][DG] | [EA]6 [EF][EF] | [Ec][D=B][Fd][Ec] [EF]2 [EG][EA] | %6
 [DB][CA][Ec][DB] [DF]2 [_DG]2 | [CA][FA][Bd][Ac] [GB]=EA[EG] |[M:3/4] F6 |[M:1/4] FF | %10
[M:4/4] [Fd]2 [Fd]4 [Fd][Ec] | [DB]2 [DF]4 [FB][FA] | [EG]2 [GB]2 [Ge]2 [^FB]2 | [Fd]6 [Fd][Ge] | %14
 d2 c2 F2 cd |[M:3/4] [Ec]2 [DB]2 [DF]2 |[M:1/4] [DG]2 |[M:4/4] [CA] [Fc]3 [=EB]2 [EG]2 | c6 FF | %19
 [Fd]2 [Fd]4 [Fd][Fc] | [DB]2 [DF]4 [FB][FA] | [EG]2 [^FA]2 [GB]2 [Gc]2 | [^Fd]6 [Fd][Fd] | %23
 d2 G2 e2 d2 | [Ec]2 [EG]4 AB | F2 d2 d c3 |[M:3/4] [DB]6 |] %27
V:2
 z4 z2 B,C | B,,F,B,F, B,,F,B,F, | B,,F,B,F, B,,F,B,F, | B,,F,B,F, B,,F,B,F, | C,F,CF, F,,F,A,F, | %5
 F,,F,A,F, F,,F,A,F, | B,,F,B,F, B,,F,B,F, | C,F,CF, C,G,[CD][C,B,] |[M:3/4] [F,A,]6 | %9
[M:1/4] [F,A,][F,A,] |[M:4/4] [B,,B,]2 [B,,B,]4 [B,,B,][B,,F,] | [B,,F,]2 [B,,B,]4 [D,B,][D,B,] | %12
 [E,B,]2 [E,E]2 [E,B,]2 [E,B,]2 | [B,,B,]6 [B,,B,][B,,B,] | %14
 [F,B,F]2 [F,A,E]2 [F,A,E]2 [F,A,E][F,A,F] |[M:3/4] [B,,F,]2 [B,,F,]2 [B,,B,]2 |[M:1/4] [B,,F,]2 | %17
[M:4/4] [C,F,] [C,A,]3 [C,G,]2 [C,B,]2 | [F,A,E]6 [F,A,][F,A,] | [B,,B,]2 [B,,B,]4 [B,,B,][B,,F,] | %20
 [B,,F,]2 [B,,B,]4 [D,B,][D,B,] | [E,B,]2 [D,D]2 [G,D]2 [E,G,]2 | [D,A,]6 [D,C][D,C] | %23
 [G,=B,F]2 [G,B,F]2 [G,A,F]2 [G,B,F]2 | [C,C]2 [C,C]4 [=E,A,_D][E,G,D] | %25
 [F,B,D]2 [F,B,F]2 [F,A,F] [G,B,E]3 |[M:3/4] [B,,F,B,]6 |] %27

